images/Traffic_Sign_GR_-_KOK_2009_-_P-63.svg

<svg width="460" height="655" fill="none" xmlns="http://www.w3.org/2000/svg"><path d="M460 0H0v655h460V0z" fill="#0C479D"/><path d="M353 548H107l246-116v116zM253.534 118.69c0 15.844-12.874 28.691-28.769 28.691-15.904 0-28.781-12.847-28.781-28.691 0-15.843 12.877-28.69 28.781-28.69 15.895 0 28.769 12.847 28.769 28.69zM307.21 217.851l-45.85-45.71c-.022-.02-.035-.022-.055-.042-.091-.088-.213-.137-.307-.226a9.354 9.354 0 0 0-2.428-1.585c-.304-.14-.611-.231-.934-.336a9.463 9.463 0 0 0-2.51-.471c-.203-.009-.379-.116-.592-.11-.101 0-.196.06-.295.066-1.067.044-2.132.215-3.152.631l-.201.083v.004l-50.37 20.399a9.464 9.464 0 0 0-5.919 8.757c0 .728.082 1.469.26 2.202 0 0 22.287 93.042 24.23 101.176l-36.706 46.846a9.428 9.428 0 0 0-2.009 5.822c0 1.742.478 3.484 1.443 5.024l58.494 92.998c2.787 4.424 8.642 5.761 13.079 2.985a9.434 9.434 0 0 0 4.445-8.018 9.3 9.3 0 0 0-1.454-5.016s-47.998-76.328-54.779-87.091l60.717-50.353a9.462 9.462 0 0 0 3.417-7.395l-1.278-96.526c10.466 10.433 23.639 23.564 26.577 26.488v48.098c0 5.223 4.241 9.457 9.482 9.457 5.242 0 9.485-4.234 9.485-9.457v-52.014a9.439 9.439 0 0 0-2.778-6.687" fill="#fff"/><path d="m161.529 305.152 39.523-23.644c4.494-2.687 5.946-8.497 3.248-12.976-2.693-4.479-8.517-5.929-13.009-3.242l-39.526 23.644a9.439 9.439 0 0 0-3.251 12.974c2.695 4.482 8.52 5.929 13.015 3.244zM187.584 390.95c-4.733-2.238-10.384-.228-12.634 4.485l-30.03 63.048c-2.25 4.718-.232 10.361 4.501 12.602 4.733 2.238 10.383.231 12.636-4.485l30.027-63.048c2.253-4.716.232-10.361-4.5-12.602z" fill="#fff"/></svg>

<svg width="460" height="655" viewBox="0 0 460 655" fill="none" xmlns="http://www.w3.org/2000/svg">
<path d="M460 0H0V655H460V0Z" fill="#0C479D"/>
<path d="M353 548H107L353 432V548Z" fill="white"/>
<path d="M253.534 118.69C253.534 134.534 240.66 147.381 224.765 147.381C208.861 147.381 195.984 134.534 195.984 118.69C195.984 102.847 208.861 90 224.765 90C240.66 90 253.534 102.847 253.534 118.69Z" fill="white"/>
<path d="M307.21 217.851L261.36 172.141C261.338 172.121 261.325 172.119 261.305 172.099C261.214 172.011 261.092 171.962 260.998 171.873C260.265 171.209 259.45 170.688 258.57 170.288C258.266 170.148 257.959 170.057 257.636 169.952C256.82 169.679 255.989 169.528 255.126 169.481C254.923 169.472 254.747 169.365 254.534 169.371C254.433 169.371 254.338 169.431 254.239 169.437C253.172 169.481 252.107 169.652 251.087 170.068L250.886 170.151V170.155L200.516 190.554C196.878 192.029 194.597 195.538 194.597 199.311C194.597 200.039 194.679 200.78 194.857 201.513C194.857 201.513 217.144 294.555 219.087 302.689C214.236 308.88 182.381 349.535 182.381 349.535C181.046 351.239 180.372 353.295 180.372 355.357C180.372 357.099 180.85 358.841 181.815 360.381L240.309 453.379C243.096 457.803 248.951 459.14 253.388 456.364C256.26 454.57 257.833 451.494 257.833 448.346C257.833 446.626 257.371 444.89 256.379 443.33C256.379 443.33 208.381 367.002 201.6 356.239L262.317 305.886C264.512 304.059 265.772 301.344 265.734 298.491L264.456 201.965C274.922 212.398 288.095 225.529 291.033 228.453C291.033 235.154 291.033 276.551 291.033 276.551C291.033 281.774 295.274 286.008 300.515 286.008C305.757 286.008 310 281.774 310 276.551V224.537C310 222.031 309.002 219.622 307.222 217.85" fill="white"/>
<path d="M161.529 305.152L201.052 281.508C205.546 278.821 206.998 273.011 204.3 268.532C201.607 264.053 195.783 262.603 191.291 265.29L151.765 288.934C147.273 291.618 145.819 297.429 148.514 301.908C151.209 306.39 157.034 307.837 161.529 305.152Z" fill="white"/>
<path d="M187.584 390.95C182.851 388.712 177.2 390.722 174.95 395.435L144.92 458.483C142.67 463.201 144.688 468.844 149.421 471.085C154.154 473.323 159.804 471.316 162.057 466.6L192.084 403.552C194.337 398.836 192.316 393.191 187.584 390.95Z" fill="white"/>
</svg>
